assets/logo/numpyLogo.svg

<?xml version="1.0" encoding="UTF-8"?>
<svg width="256px" height="274px" viewBox="0 0 256 274" version="1.1" xmlns="http://www.w3.org/2000/svg" xmlns:xlink="http://www.w3.org/1999/xlink" preserveAspectRatio="xMidYMid">
    <g>
        <path d="M191.54779,186.292389 L191.607285,246.81213 L137.903038,273.611369 L137.903038,213.11807 L191.54779,186.292389 Z M256.000818,153.946885 L256.000818,214.678164 L210.196199,237.537504 L210.163146,177.083869 L256.000818,153.946885 Z M191.468463,105.286501 L191.527958,165.171627 L137.903038,191.818823 L137.903038,131.913865 L191.468463,105.286501 Z M256.000818,73.2054191 L256.000818,132.713743 L210.149925,156.022603 L210.110262,96.0184858 L256.000818,73.2054191 Z M129.738988,66.1651652 L177.67221,90.3598405 L127.940914,115.334563 L80.9133402,91.7150067 L129.738988,66.1651652 Z M63.0648093,32.5107686 L108.783491,55.588258 L59.8454631,81.1314889 L12.8906057,57.5515964 L63.0648093,32.5107686 Z M193.755719,32.8611286 L242.997833,57.5515964 L198.958235,79.6705536 L150.925855,55.4428255 L193.755719,32.8611286 Z M128.231779,3.55271368e-15 L172.562241,22.2247263 L130.056295,44.9188028 L84.3772773,21.8809768 L128.231779,3.55271368e-15 Z" fill="#4DABCF"></path>
        <path d="M118.943932,131.913865 L82.7709095,113.728195 L82.7709095,192.334447 C82.7709095,192.334447 38.5329951,98.2065835 34.4344436,89.7516683 C33.9055982,88.6609247 31.7307216,87.4644121 31.175434,87.1735472 C23.2427536,83.0088899 0,71.2354701 0,71.2354701 L0,210.110262 L32.1537979,227.297736 L32.1537979,154.7071 C32.1537979,154.7071 75.9223621,238.813344 76.3652701,239.732213 C76.8081781,240.651081 81.2042052,249.515852 85.8977077,252.629429 C92.1513041,256.767644 118.950543,272.884206 118.950543,272.884206 L118.943932,131.913865 Z" fill="#4D77CF"></path>
    </g>
</svg>

<?xml version="1.0" encoding="UTF-8" standalone="no"?>
<svg
   width="315.74341"
   height="325.47308"
   viewBox="0 0 315.74341 325.47309"
   version="1.1"
   preserveAspectRatio="xMidYMid"
   id="svg1479"
   sodipodi:docname="numpyLogo.svg"
   inkscape:version="1.1 (c68e22c387, 2021-05-23)"
   xmlns:inkscape="http://www.inkscape.org/namespaces/inkscape"
   xmlns:sodipodi="http://sodipodi.sourceforge.net/DTD/sodipodi-0.dtd"
   xmlns="http://www.w3.org/2000/svg"
   xmlns:svg="http://www.w3.org/2000/svg">
  <defs
     id="defs1483" />
  <sodipodi:namedview
     id="namedview1481"
     pagecolor="#ffffff"
     bordercolor="#666666"
     borderopacity="1.0"
     inkscape:pageshadow="2"
     inkscape:pageopacity="0.0"
     inkscape:pagecheckerboard="0"
     showgrid="false"
     inkscape:zoom="3.1861314"
     inkscape:cx="163.0504"
     inkscape:cy="146.8866"
     inkscape:window-width="3840"
     inkscape:window-height="2066"
     inkscape:window-x="-11"
     inkscape:window-y="-11"
     inkscape:window-maximized="1"
     inkscape:current-layer="svg1479" />
  <g
     id="g1477"
     transform="translate(35.152349,16.043528)">
    <path
       d="m 191.54779,186.29239 0.0595,60.51974 -53.70424,26.79924 v -60.4933 z m 64.45303,-32.34551 v 60.73128 l -45.80462,22.85934 -0.0331,-60.45363 z m -64.53236,-48.66038 0.0595,59.88513 -53.62492,26.64719 v -59.90496 z m 64.53236,-32.081081 v 59.508321 l -45.8509,23.30886 -0.0397,-60.004114 z M 129.73899,66.165165 177.67221,90.359841 127.94091,115.33456 80.91334,91.715007 Z M 63.064809,32.510769 108.78349,55.588258 59.845463,81.131489 12.890606,57.551596 Z m 130.690911,0.35036 49.24211,24.690467 -44.0396,22.118958 -48.03237,-24.227729 z M 128.23178,0 172.56224,22.224726 130.05629,44.918803 84.377277,21.880977 Z"
       fill="#4dabcf"
       id="path1473" />
    <path
       d="M 118.94393,131.91386 82.77091,113.7282 v 78.60625 c 0,0 -44.237915,-94.127867 -48.336466,-102.582782 -0.528846,-1.090743 -2.703722,-2.287256 -3.25901,-2.578121 C 23.242754,83.00889 0,71.23547 0,71.23547 v 138.87479 l 32.153798,17.18748 V 154.7071 c 0,0 43.768564,84.10624 44.211472,85.02511 0.442908,0.91887 4.838935,9.78364 9.532438,12.89722 6.253596,4.13821 33.052832,20.25478 33.052832,20.25478 z"
       fill="#4d77cf"
       id="path1475" />
  </g>
</svg>
